packages/icons/svg/24/Pose.svg

<svg width="24" height="24" viewBox="0 0 24 24" fill="none" xmlns="http://www.w3.org/2000/svg">
<path fill-rule="evenodd" clip-rule="evenodd" d="M13 5C13 6.65685 11.6568 8 9.99998 8C8.34313 8 6.99998 6.65685 6.99998 5C6.99998 3.34315 8.34313 2 9.99998 2C11.6568 2 13 3.34315 13 5ZM11 5C11 5.55228 10.5523 6 9.99998 6C9.4477 6 8.99998 5.55228 8.99998 5C8.99998 4.44772 9.4477 4 9.99998 4C10.5523 4 11 4.44772 11 5Z" fill="#858585"/>
<path fill-rule="evenodd" clip-rule="evenodd" d="M18.5547 6.83205C19.0142 6.5257 19.1384 5.90483 18.832 5.4453C18.5257 4.98577 17.9048 4.8616 17.4453 5.16795L5.44528 13.1679C4.98576 13.4743 4.86158 14.0952 5.16793 14.5547C5.47429 15.0142 6.09516 15.1384 6.55468 14.8321L8.99998 13.2019V15.6492L5.21912 20.3753C4.87411 20.8066 4.94403 21.4359 5.37529 21.7809C5.80655 22.1259 6.43584 22.056 6.78085 21.6247L10.4806 17H13.5194L17.2191 21.6247C17.5641 22.056 18.1934 22.1259 18.6247 21.7809C19.0559 21.4359 19.1259 20.8066 18.7809 20.3753L15 15.6492L15 9.20185L18.5547 6.83205ZM11 15V11.8685L13 10.5352V15H11Z" fill="#858585"/>
<path fill-rule="evenodd" clip-rule="evenodd" d="M13 5C13 6.65685 11.6568 8 9.99998 8C8.34313 8 6.99998 6.65685 6.99998 5C6.99998 3.34315 8.34313 2 9.99998 2C11.6568 2 13 3.34315 13 5ZM11 5C11 5.55228 10.5523 6 9.99998 6C9.4477 6 8.99998 5.55228 8.99998 5C8.99998 4.44772 9.4477 4 9.99998 4C10.5523 4 11 4.44772 11 5Z" stroke="white"/>
<path fill-rule="evenodd" clip-rule="evenodd" d="M18.5547 6.83205C19.0142 6.5257 19.1384 5.90483 18.832 5.4453C18.5257 4.98577 17.9048 4.8616 17.4453 5.16795L5.44528 13.1679C4.98576 13.4743 4.86158 14.0952 5.16793 14.5547C5.47429 15.0142 6.09516 15.1384 6.55468 14.8321L8.99998 13.2019V15.6492L5.21912 20.3753C4.87411 20.8066 4.94403 21.4359 5.37529 21.7809C5.80655 22.1259 6.43584 22.056 6.78085 21.6247L10.4806 17H13.5194L17.2191 21.6247C17.5641 22.056 18.1934 22.1259 18.6247 21.7809C19.0559 21.4359 19.1259 20.8066 18.7809 20.3753L15 15.6492L15 9.20185L18.5547 6.83205ZM11 15V11.8685L13 10.5352V15H11Z" stroke="white"/>
</svg>

<svg width="24" height="24" fill="none" xmlns="http://www.w3.org/2000/svg" viewBox="0 0 24 24"><path fill-rule="evenodd" clip-rule="evenodd" d="M13 5a3 3 0 11-6 0 3 3 0 016 0zm-2 0a1 1 0 11-2 0 1 1 0 012 0zM18.555 6.832a1 1 0 00-1.11-1.664l-12 8a1 1 0 001.11 1.664L9 13.202v2.447l-3.78 4.726a1 1 0 001.56 1.25L10.48 17h3.04l3.7 4.625a1 1 0 101.56-1.25L15 15.65V9.202l3.555-2.37zM11 15v-3.132l2-1.333V15h-2z" fill="currentColor"></path><path clip-rule="evenodd" d="M13 5a3 3 0 11-6 0 3 3 0 016 0zm-2 0a1 1 0 11-2 0 1 1 0 012 0zM18.555 6.832a1 1 0 00-1.11-1.664l-12 8a1 1 0 001.11 1.664L9 13.202v2.447l-3.78 4.726a1 1 0 001.56 1.25L10.48 17h3.04l3.7 4.625a1 1 0 101.56-1.25L15 15.65V9.202l3.555-2.37zM11 15v-3.132l2-1.333V15h-2z" stroke="#fff"></path></svg>
